icons/svg/transport/parking_private2.svg

<?xml version="1.0" encoding="UTF-8" standalone="no"?>
<!-- Created with Inkscape (http://www.inkscape.org/) -->

<svg
   xmlns:dc="http://purl.org/dc/elements/1.1/"
   xmlns:cc="http://creativecommons.org/ns#"
   xmlns:rdf="http://www.w3.org/1999/02/22-rdf-syntax-ns#"
   xmlns:svg="http://www.w3.org/2000/svg"
   xmlns="http://www.w3.org/2000/svg"
   xmlns:sodipodi="http://sodipodi.sourceforge.net/DTD/sodipodi-0.dtd"
   xmlns:inkscape="http://www.inkscape.org/namespaces/inkscape"
   version="1.0"
   width="580"
   height="580"
   id="svg2"
   sodipodi:version="0.32"
   inkscape:version="0.47 r22583"
   sodipodi:docname="transport_parking_private2.svg"
   inkscape:output_extension="org.inkscape.output.svg.inkscape">
  <metadata
     id="metadata10">
    <rdf:RDF>
      <cc:Work
         rdf:about="">
        <dc:format>image/svg+xml</dc:format>
        <dc:type
           rdf:resource="http://purl.org/dc/dcmitype/StillImage" />
        <cc:license
           rdf:resource="http://web.resource.org/cc/PublicDomain" />
        <dc:language>en</dc:language>
      </cc:Work>
    </rdf:RDF>
  </metadata>
  <sodipodi:namedview
     inkscape:window-height="1005"
     inkscape:window-width="1280"
     inkscape:pageshadow="2"
     inkscape:pageopacity="0.0"
     guidetolerance="10.0"
     gridtolerance="10.0"
     objecttolerance="10.0"
     borderopacity="1.0"
     bordercolor="#666666"
     pagecolor="#ffffff"
     id="base"
     showgrid="false"
     inkscape:zoom="0.35355339"
     inkscape:cx="110.17217"
     inkscape:cy="413.63205"
     inkscape:window-x="22"
     inkscape:window-y="11"
     inkscape:current-layer="svg2"
     inkscape:window-maximized="0" />
  <defs
     id="defs4">
    <inkscape:perspective
       sodipodi:type="inkscape:persp3d"
       inkscape:vp_x="0 : 290 : 1"
       inkscape:vp_y="0 : 1000 : 0"
       inkscape:vp_z="580 : 290 : 1"
       inkscape:persp3d-origin="290 : 193.33333 : 1"
       id="perspective12" />
    <style
       type="text/css"
       id="style6">
   
    .fil0 {fill:#EF7900}
   
  </style>
    <inkscape:perspective
       id="perspective6807"
       inkscape:persp3d-origin="29.116032 : 19.410688 : 1"
       inkscape:vp_z="58.232063 : 29.116032 : 1"
       inkscape:vp_y="0 : 1000 : 0"
       inkscape:vp_x="0 : 29.116032 : 1"
       sodipodi:type="inkscape:persp3d" />
    <inkscape:perspective
       id="perspective6954"
       inkscape:persp3d-origin="290 : 193.33333 : 1"
       inkscape:vp_z="580 : 290 : 1"
       inkscape:vp_y="0 : 1000 : 0"
       inkscape:vp_x="0 : 290 : 1"
       sodipodi:type="inkscape:persp3d" />
    <marker
       viewBox="0 0 10 10"
       refY="5"
       refX="10"
       orient="auto"
       markerWidth="4"
       markerUnits="strokeWidth"
       markerHeight="3"
       id="ArrowStart">
      <path
         id="path2295"
         d="M 10 0 L 0 5 L 10 10 z" />
    </marker>
    <marker
       viewBox="0 0 10 10"
       refY="5"
       refX="0"
       orient="auto"
       markerWidth="4"
       markerUnits="strokeWidth"
       markerHeight="3"
       id="ArrowEnd">
      <path
         id="path2292"
         d="M 0 0 L 10 5 L 0 10 z" />
    </marker>
    <inkscape:perspective
       id="perspective7597"
       inkscape:persp3d-origin="178.5405 : 158.483 : 1"
       inkscape:vp_z="357.08099 : 237.7245 : 1"
       inkscape:vp_y="0 : 1000 : 0"
       inkscape:vp_x="0 : 237.7245 : 1"
       sodipodi:type="inkscape:persp3d" />
    <inkscape:perspective
       id="perspective2868"
       inkscape:persp3d-origin="0.5 : 0.33333333 : 1"
       inkscape:vp_z="1 : 0.5 : 1"
       inkscape:vp_y="0 : 1000 : 0"
       inkscape:vp_x="0 : 0.5 : 1"
       sodipodi:type="inkscape:persp3d" />
  </defs>
  <g
     id="g1327">
    <path
       d="M 66.275,1.768 C 24.94,1.768 1.704,23.139 1.704,66.804 L 1.704,516.927 C 1.704,557.771 22.598,579.156 63.896,579.156 L 515.92,579.156 C 557.227,579.156 578.149,558.84 578.149,516.927 L 578.149,66.804 C 578.149,24.203 557.227,1.768 514.627,1.768 C 514.624,1.768 66.133,1.625 66.275,1.768 z"
       style="fill:#111111;stroke:#eeeeee;stroke-width:3.40799999"
       id="path1329" />
  </g>
  <g
     id="g2319"
     transform="translate(879.29125,36.805119)">
    <path
       id="path2323"
       style="fill:#ffffff;stroke:none"
       d="" />
  </g>
  <g
     id="g2325"
     transform="translate(879.29125,36.805119)">
    <path
       id="path2329"
       style="fill:#ffffff;stroke:none"
       d="" />
  </g>
  <path
     style="font-size:143.53205872000001000px;font-style:normal;font-weight:normal;fill:#ffffff;fill-opacity:1;stroke:#ffffff;stroke-width:22.68786240000000000;stroke-linecap:round;stroke-linejoin:round;stroke-miterlimit:4;stroke-dasharray:none;stroke-opacity:1;font-family:Bitstream Vera Sans;opacity:0.25"
     d="M 145.35836,505.1504 L 145.35836,85.566299 L 303.63258,85.566299 C 331.49012,85.56672 352.76506,86.902366 367.45745,89.573248 C 388.06429,93.008179 405.33227,99.543305 419.26147,109.17864 C 433.19004,118.81477 444.39993,132.31434 452.89116,149.67738 C 461.38172,167.04114 465.62716,186.12179 465.62752,206.91942 C 465.62716,242.60054 454.27416,272.79568 431.56851,297.50493 C 408.8622,322.21458 367.83879,334.56932 308.49813,334.56915 L 200.88312,334.56915 L 200.88312,505.1504 L 145.35836,505.1504 z M 200.88312,285.05478 L 309.35678,285.05478 C 345.22821,285.05501 370.70087,278.37678 385.77488,265.02007 C 400.84831,251.66386 408.38518,232.8694 408.38548,208.63666 C 408.38518,191.08276 403.94894,176.05676 395.07671,163.55858 C 386.2039,151.06108 374.51701,142.80869 360.01596,138.8014 C 350.66619,136.32127 333.39819,135.08103 308.21194,135.08067 L 200.88312,135.08067 L 200.88312,285.05478 z"
     id="text2419" />
  <path
     style="font-size:143.53205872px;font-style:normal;font-variant:normal;font-weight:normal;font-stretch:normal;text-indent:0;text-align:start;text-decoration:none;line-height:normal;letter-spacing:normal;word-spacing:normal;text-transform:none;direction:ltr;block-progression:tb;writing-mode:lr-tb;text-anchor:start;opacity:0.25;color:#000000;fill:#ffffff;fill-opacity:1;fill-rule:nonzero;stroke:none;stroke-width:22.6878624;marker:none;visibility:visible;display:inline;overflow:visible;enable-background:accumulate;font-family:Bitstream Vera Sans;-inkscape-font-specification:Bitstream Vera Sans"
     d="M 145.34375,70.21875 A 11.345066,11.345066 0 0 0 134,81.5625 l 0,419.59375 A 11.345066,11.345066 0 0 0 145.34375,512.5 l 55.53125,0 a 11.345066,11.345066 0 0 0 11.34375,-11.34375 l 0,-159.25 96.28125,0 c 60.91521,1.7e-4 105.36861,-12.38385 131.40625,-40.71875 24.54634,-26.71237 37.06212,-60.19392 37.0625,-98.28125 -3.9e-4,-22.34127 -4.59935,-43.24942 -13.875,-62.21875 -9.2028,-18.81807 -21.71176,-34.00753 -37.375,-44.84375 C 410.2013,85.109763 391.31348,78.065034 369.5,74.40625 369.4426,74.39582 369.37001,74.38539 369.3125,74.375 353.3949,71.500414 331.74345,70.219175 303.625,70.21875 l -158.28125,0 z m 11.34375,22.6875 146.9375,0 c 27.49503,4.16e-4 48.3613,1.36725 61.8125,3.8125 a 11.345066,11.345066 0 0 0 0.15625,0.0312 c 19.31888,3.22024 34.92333,9.24481 47.21875,17.75 12.1939,8.43604 22.09534,20.24824 29.875,36.15625 7.70547,15.75819 11.59342,32.99601 11.59375,52.25 -3.4e-4,33.27491 -10.19754,60.23137 -31.0625,82.9375 -19.37498,21.0844 -56.95264,33.37517 -114.71875,33.375 l -107.625,0 a 11.345066,11.345066 0 0 0 -11.34375,11.34375 l 0,159.25 -32.84375,0 0,-396.90625 z M 200.875,119.75 a 11.345066,11.345066 0 0 0 -11.34375,11.34375 l 0,149.96875 a 11.345066,11.345066 0 0 0 11.34375,11.34375 l 108.46875,0 c 37.27941,2.4e-4 65.55179,-6.58743 83.96875,-22.90625 17.62215,-15.61457 26.40592,-38.29021 26.40625,-64.875 C 419.71842,185.15998 414.6358,167.54228 404.3125,153 394.08228,138.59057 379.87802,128.53052 363.03125,123.875 a 11.345066,11.345066 0 0 0 -0.0937,-0.0312 c -11.78959,-3.12732 -29.16017,-4.09338 -54.71875,-4.09375 l -107.34375,0 z m 11.34375,22.6875 96,0 c 24.72939,3.5e-4 41.8252,1.48802 48.78125,3.3125 0.0238,0.006 0.0702,0.025 0.0937,0.0312 12.10617,3.36666 21.22373,9.78689 28.71875,20.34375 7.42116,10.45408 11.21848,22.85722 11.21875,38.5 -2.7e-4,21.88069 -6.25654,36.8084 -18.78125,47.90625 -11.73106,10.3946 -34.4428,17.18772 -68.90625,17.1875 l -97.125,0 0,-127.28125 z"
     id="text2419" />
</svg>

<svg width="580" height="580" viewBox="0 0 580 580" fill="none" xmlns="http://www.w3.org/2000/svg">
<g clip-path="url(#clip0)">
<path d="M66.2751 1.76766C24.9401 1.76766 1.7041 23.1387 1.7041 66.8037V516.927C1.7041 557.771 22.5981 579.156 63.8961 579.156H515.92C557.227 579.156 578.149 558.84 578.149 516.927V66.8037C578.149 24.2027 557.227 1.76766 514.627 1.76766C514.624 1.76766 66.1331 1.62466 66.2751 1.76766Z" fill="#111111" stroke="#EEEEEE" stroke-width="3.408"/>
<path opacity="0.25" d="M145.358 505.151V85.5664H303.633C331.49 85.5668 352.765 86.9025 367.458 89.5734C388.064 93.0083 405.332 99.5434 419.262 109.179C433.19 118.815 444.4 132.314 452.891 149.677C461.382 167.041 465.627 186.122 465.628 206.92C465.627 242.601 454.274 272.796 431.569 297.505C408.862 322.215 367.839 334.569 308.498 334.569H200.883V505.151H145.358ZM200.883 285.055H309.357C345.228 285.055 370.701 278.377 385.775 265.02C400.848 251.664 408.385 232.87 408.385 208.637C408.385 191.083 403.949 176.057 395.077 163.559C386.204 151.061 374.517 142.809 360.016 138.802C350.666 136.321 333.398 135.081 308.212 135.081H200.883V285.055Z" fill="white" stroke="white" stroke-width="22.6879" stroke-linecap="round" stroke-linejoin="round"/>
<path opacity="0.25" d="M145.344 70.2188C142.335 70.2191 139.45 71.4144 137.323 73.5416C135.196 75.6689 134 78.5541 134 81.5625V501.156C134 504.165 135.196 507.05 137.323 509.177C139.45 511.304 142.335 512.5 145.344 512.5H200.875C203.883 512.5 206.769 511.304 208.896 509.177C211.023 507.05 212.218 504.165 212.219 501.156V341.906H308.5C369.415 341.906 413.869 329.522 439.906 301.188C464.453 274.475 476.968 240.994 476.969 202.906C476.968 180.565 472.369 159.657 463.094 140.688C453.891 121.869 441.382 106.68 425.719 95.8438C410.201 85.1098 391.313 78.065 369.5 74.4062C369.443 74.3958 369.37 74.3854 369.312 74.375C353.395 71.5004 331.743 70.2192 303.625 70.2188H145.344ZM156.688 92.9062H303.625C331.12 92.9067 351.986 94.2735 365.438 96.7188C365.49 96.7295 365.542 96.7399 365.594 96.7499C384.913 99.9702 400.517 105.995 412.812 114.5C425.006 122.936 434.908 134.748 442.688 150.656C450.393 166.414 454.281 183.652 454.281 202.906C454.281 236.181 444.084 263.138 423.219 285.844C403.844 306.928 366.266 319.219 308.5 319.219H200.875C197.867 319.219 194.981 320.414 192.854 322.542C190.727 324.669 189.532 327.554 189.531 330.562V489.812H156.688V92.9062V92.9062ZM200.875 119.75C197.867 119.75 194.981 120.946 192.854 123.073C190.727 125.2 189.532 128.085 189.531 131.094V281.062C189.532 284.071 190.727 286.956 192.854 289.083C194.981 291.211 197.867 292.406 200.875 292.406H309.344C346.623 292.406 374.896 285.819 393.312 269.5C410.935 253.885 419.718 231.21 419.719 204.625C419.718 185.16 414.636 167.542 404.312 153C394.082 138.591 379.878 128.531 363.031 123.875C363 123.864 362.969 123.854 362.938 123.844C351.148 120.716 333.777 119.75 308.219 119.75H200.875L200.875 119.75ZM212.219 142.438H308.219C332.948 142.438 350.044 143.926 357 145.75C357.024 145.756 357.07 145.775 357.094 145.781C369.2 149.148 378.317 155.568 385.812 166.125C393.234 176.579 397.031 188.982 397.031 204.625C397.031 226.506 390.775 241.433 378.25 252.531C366.519 262.926 343.807 269.719 309.344 269.719H212.219V142.437L212.219 142.438Z" fill="white"/>
</g>
<defs>
<clipPath id="clip0">
<path d="M0 0H580V580H0V0Z" fill="white"/>
</clipPath>
</defs>
</svg>
